src/lib/packages/icons/src/assets/line/user-check-bottom.svg

<svg width="24" height="24" viewBox="0 0 24 24" fill="none" xmlns="http://www.w3.org/2000/svg">
<path d="M11.009 10.75C8.66503 10.75 6.75903 8.843 6.75903 6.5C6.75903 4.157 8.66503 2.25 11.009 2.25C13.353 2.25 15.259 4.157 15.259 6.5C15.259 8.843 13.353 10.75 11.009 10.75ZM11.009 3.75C9.49203 3.75 8.25903 4.983 8.25903 6.5C8.25903 8.017 9.49203 9.25 11.009 9.25C12.526 9.25 13.759 8.017 13.759 6.5C13.759 4.983 12.525 3.75 11.009 3.75ZM14.75 21C14.75 20.586 14.414 20.25 14 20.25H7C5.423 20.25 4.75 19.583 4.75 18.02C4.75 17.019 5.057 13.75 9 13.75H13C14.636 13.75 15.8231 14.307 16.5291 15.405C16.7531 15.754 17.2169 15.855 17.5649 15.631C17.9139 15.407 18.014 14.943 17.791 14.595C17.103 13.525 15.715 12.25 13 12.25H9C4.756 12.25 3.25 15.358 3.25 18.02C3.25 20.425 4.582 21.75 7 21.75H14C14.414 21.75 14.75 21.414 14.75 21ZM18.863 21.197L21.53 18.53C21.823 18.237 21.823 17.762 21.53 17.469C21.237 17.176 20.762 17.176 20.469 17.469L18.332 19.605L17.5291 18.802C17.2361 18.509 16.761 18.509 16.468 18.802C16.175 19.095 16.175 19.57 16.468 19.863L17.801 21.196C17.947 21.342 18.1391 21.416 18.3311 21.416C18.5231 21.416 18.717 21.343 18.863 21.197Z" fill="currentColor"/>
</svg>

<svg xmlns="http://www.w3.org/2000/svg" width="24" height="24" fill="none"><path fill="currentColor" d="M11.009 10.75a4.255 4.255 0 0 1-4.25-4.25 4.255 4.255 0 0 1 4.25-4.25 4.255 4.255 0 0 1 4.25 4.25 4.255 4.255 0 0 1-4.25 4.25Zm0-7a2.752 2.752 0 0 0-2.75 2.75 2.752 2.752 0 0 0 2.75 2.75 2.752 2.752 0 0 0 2.75-2.75 2.753 2.753 0 0 0-2.75-2.75ZM14.75 21a.75.75 0 0 0-.75-.75H7c-1.577 0-2.25-.667-2.25-2.23 0-1.001.307-4.27 4.25-4.27h4c1.636 0 2.823.557 3.53 1.655a.749.749 0 1 0 1.261-.81c-.688-1.07-2.076-2.345-4.791-2.345H9c-4.244 0-5.75 3.108-5.75 5.77 0 2.405 1.332 3.73 3.75 3.73h7a.75.75 0 0 0 .75-.75Zm4.113.197 2.667-2.667a.75.75 0 1 0-1.061-1.061l-2.137 2.136-.803-.803a.75.75 0 0 0-1.061 1.061l1.333 1.333a.748.748 0 0 0 1.062.001Z"/></svg>
